src/img/instagram_icon.svg

<svg width="40" height="41" viewBox="0 0 40 41" fill="none" xmlns="http://www.w3.org/2000/svg">
<path d="M0 20.2695C0 9.22384 8.95431 0.269531 20 0.269531C31.0457 0.269531 40 9.22384 40 20.2695C40 31.3152 31.0457 40.2695 20 40.2695C8.95431 40.2695 0 31.3152 0 20.2695Z" fill="#E2F8F9"/>
<g clip-path="url(#clip0)">
<path fill-rule="evenodd" clip-rule="evenodd" d="M16.4002 13.6688C14.7433 13.6688 13.4002 15.0119 13.4002 16.6688V23.8688C13.4002 25.5256 14.7433 26.8688 16.4002 26.8688H23.6002C25.257 26.8688 26.6002 25.5256 26.6002 23.8688V16.6688C26.6002 15.0119 25.257 13.6688 23.6002 13.6688H16.4002ZM12.2002 16.6688C12.2002 14.3492 14.0806 12.4688 16.4002 12.4688H23.6002C25.9198 12.4688 27.8002 14.3492 27.8002 16.6688V23.8688C27.8002 26.1883 25.9198 28.0688 23.6002 28.0688H16.4002C14.0806 28.0688 12.2002 26.1883 12.2002 23.8688V16.6688Z" fill="#06C3C6"/>
<path fill-rule="evenodd" clip-rule="evenodd" d="M20.3657 17.9825C19.8913 17.9121 19.4068 17.9932 18.9812 18.214C18.5555 18.4349 18.2103 18.7844 17.9947 19.2128C17.7791 19.6411 17.704 20.1266 17.7802 20.6C17.8564 21.0735 18.08 21.5109 18.4191 21.85C18.7582 22.1891 19.1956 22.4127 19.669 22.4889C20.1425 22.565 20.628 22.49 21.0563 22.2744C21.4847 22.0588 21.8342 21.7136 22.0551 21.2879C22.2759 20.8622 22.357 20.3778 22.2866 19.9034C22.2149 19.4195 21.9894 18.9715 21.6435 18.6256C21.2976 18.2797 20.8496 18.0542 20.3657 17.9825ZM18.4285 17.1489C19.0782 16.8118 19.8177 16.6881 20.5417 16.7955C21.2803 16.905 21.9641 17.2491 22.492 17.7771C23.02 18.305 23.3641 18.9888 23.4736 19.7274C23.581 20.4514 23.4573 21.1909 23.1202 21.8406C22.7831 22.4903 22.2497 23.0172 21.5958 23.3463C20.942 23.6754 20.2011 23.7899 19.4784 23.6736C18.7557 23.5573 18.0881 23.2161 17.5705 22.6985C17.053 22.181 16.7118 21.5134 16.5955 20.7907C16.4792 20.068 16.5937 19.3271 16.9228 18.6732C17.2519 18.0194 17.7788 17.486 18.4285 17.1489Z" fill="#06C3C6"/>
<path fill-rule="evenodd" clip-rule="evenodd" d="M23.3599 16.309C23.3599 15.9776 23.6285 15.709 23.9599 15.709H23.9671C24.2984 15.709 24.5671 15.9776 24.5671 16.309C24.5671 16.6404 24.2984 16.909 23.9671 16.909H23.9599C23.6285 16.909 23.3599 16.6404 23.3599 16.309Z" fill="#06C3C6"/>
</g>
<defs>
<clipPath id="clip0">
<rect width="16" height="16" fill="white" transform="translate(12 12.2695)"/>
</clipPath>
</defs>
</svg>

<svg fill="none" xmlns="http://www.w3.org/2000/svg" viewBox="0 0 40 41"><path d="M0 20.27a20 20 0 1140 0 20 20 0 01-40 0z" fill="#E2F8F9"/><g clip-path="url(#clip0)" fill-rule="evenodd" clip-rule="evenodd" fill="#06C3C6"><path d="M16.4 13.67a3 3 0 00-3 3v7.2a3 3 0 003 3h7.2a3 3 0 003-3v-7.2a3 3 0 00-3-3h-7.2zm-4.2 3a4.2 4.2 0 014.2-4.2h7.2a4.2 4.2 0 014.2 4.2v7.2a4.2 4.2 0 01-4.2 4.2h-7.2a4.2 4.2 0 01-4.2-4.2v-7.2z"/><path d="M20.37 17.98a2.28 2.28 0 10-.67 4.51 2.28 2.28 0 00.67-4.5zm-1.94-.83a3.48 3.48 0 113.2 6.18 3.48 3.48 0 01-3.2-6.18zM23.36 16.3c0-.32.27-.6.6-.6a.6.6 0 010 1.2.6.6 0 01-.6-.6z"/></g><defs><clipPath id="clip0"><path fill="#fff" transform="translate(12 12.27)" d="M0 0h16v16H0z"/></clipPath></defs></svg>
